src/lib/packages/icons/src/assets/line/fork-knife.svg

<svg width="24" height="24" viewBox="0 0 24 24" fill="none" xmlns="http://www.w3.org/2000/svg">
<path d="M21.5299 20.4699C21.8199 20.7599 21.8199 21.2399 21.5299 21.5299C21.3799 21.6799 21.1899 21.7499 20.9999 21.7499C20.8099 21.7499 20.6199 21.6799 20.4699 21.5299L14.9999 16.0599L12.8799 18.1799C12.6499 18.4099 12.3399 18.5399 11.9999 18.5399C11.6599 18.5399 11.3499 18.4099 11.1199 18.1799L9.96994 17.0299C9.67994 16.7399 9.67994 16.2599 9.96994 15.9699C10.2599 15.6799 10.7399 15.6799 11.0299 15.9699L11.9999 16.9399L14.45 14.4899C14.45 14.4899 14.4599 14.4699 14.4699 14.4599C14.7599 14.1699 15.2299 14.1599 15.5299 14.4599L21.5399 20.4699H21.5299ZM6.96994 14.0299C7.11994 14.1799 7.30994 14.2499 7.49994 14.2499C7.68994 14.2499 7.87994 14.1799 8.02994 14.0299C8.31994 13.7399 8.31994 13.2599 8.02994 12.9699L7.35993 12.2999C5.93993 10.8899 4.74994 7.99994 4.74994 5.99994V5.80994L8.47995 9.53993C8.62995 9.68993 8.81995 9.75993 9.00995 9.75993C9.19995 9.75993 9.38995 9.68993 9.53995 9.53993C9.82995 9.24993 9.82995 8.76994 9.53995 8.47994L4.52994 3.46994C4.45994 3.39994 4.37995 3.34994 4.28995 3.30994C4.10995 3.22994 3.89994 3.22994 3.71994 3.30994C3.53994 3.38994 3.38994 3.52994 3.30994 3.71994C3.26994 3.80994 3.24994 3.90993 3.24994 4.00993V6.00993C3.24994 8.42993 4.58993 11.6599 6.29993 13.3699L6.96994 14.0399V14.0299ZM15.4999 12.7799C16.5999 12.7799 17.6999 12.3599 18.5299 11.5299L21.5299 8.52994C21.8199 8.23994 21.8199 7.75994 21.5299 7.46994C21.2399 7.17994 20.7599 7.17994 20.4699 7.46994L17.4699 10.4699C16.3799 11.5599 14.6199 11.5599 13.5299 10.4699C12.4399 9.37994 12.4399 7.61994 13.5299 6.52994L16.5299 3.52994C16.8199 3.23994 16.8199 2.75994 16.5299 2.46994C16.2399 2.17994 15.7599 2.17994 15.4699 2.46994L12.4699 5.46994C10.9799 6.95994 10.8299 9.27994 11.9899 10.9499L2.46994 20.4699C2.17994 20.7599 2.17994 21.2399 2.46994 21.5299C2.61994 21.6799 2.80994 21.7499 2.99994 21.7499C3.18994 21.7499 3.37994 21.6799 3.52994 21.5299L13.0499 12.0099C13.7799 12.5199 14.6399 12.7899 15.4999 12.7899V12.7799ZM14.3499 8.15994C14.4999 8.30994 14.6899 8.37995 14.8799 8.37995C15.0699 8.37995 15.2599 8.30994 15.4099 8.15994L18.2799 5.27994C18.5699 4.98994 18.5699 4.50994 18.2799 4.21994C17.9899 3.92994 17.5099 3.92994 17.2199 4.21994L14.3499 7.09995C14.0599 7.38995 14.0599 7.86994 14.3499 8.15994ZM15.8499 9.65994C15.9999 9.80994 16.1899 9.87995 16.3799 9.87995C16.5699 9.87995 16.7599 9.80994 16.9099 9.65994L19.7799 6.77994C20.0699 6.48994 20.0699 6.00994 19.7799 5.71994C19.4899 5.42994 19.0099 5.42994 18.7199 5.71994L15.8499 8.59995C15.5599 8.88995 15.5599 9.36994 15.8499 9.65994Z" fill="currentColor"/>
</svg>

<svg xmlns="http://www.w3.org/2000/svg" width="24" height="24" fill="none"><path fill="currentColor" d="M21.53 20.47c.29.29.29.77 0 1.06-.15.15-.34.22-.53.22s-.38-.07-.53-.22L15 16.06l-2.12 2.12c-.23.23-.54.36-.88.36-.34 0-.65-.13-.88-.36l-1.15-1.15a.754.754 0 0 1 0-1.06c.29-.29.77-.29 1.06 0l.97.97 2.45-2.45s.01-.02.02-.03c.29-.29.76-.3 1.06 0l6.01 6.01h-.01ZM6.97 14.03c.15.15.34.22.53.22s.38-.07.53-.22c.29-.29.29-.77 0-1.06l-.67-.67C5.94 10.89 4.75 8 4.75 6v-.19l3.73 3.73c.15.15.34.22.53.22s.38-.07.53-.22c.29-.29.29-.77 0-1.06L4.53 3.47a.776.776 0 0 0-.24-.16.707.707 0 0 0-.57 0c-.18.08-.33.22-.41.41-.04.09-.06.19-.06.29v2c0 2.42 1.34 5.65 3.05 7.36l.67.67v-.01Zm8.53-1.25c1.1 0 2.2-.42 3.03-1.25l3-3c.29-.29.29-.77 0-1.06a.754.754 0 0 0-1.06 0l-3 3a2.782 2.782 0 0 1-3.94 0 2.782 2.782 0 0 1 0-3.94l3-3c.29-.29.29-.77 0-1.06a.754.754 0 0 0-1.06 0l-3 3c-1.49 1.49-1.64 3.81-.48 5.48l-9.52 9.52c-.29.29-.29.77 0 1.06.15.15.34.22.53.22s.38-.07.53-.22l9.52-9.52c.73.51 1.59.78 2.45.78v-.01Zm-1.15-4.62c.15.15.34.22.53.22s.38-.07.53-.22l2.87-2.88c.29-.29.29-.77 0-1.06a.754.754 0 0 0-1.06 0L14.35 7.1c-.29.29-.29.77 0 1.06Zm1.5 1.5c.15.15.34.22.53.22s.38-.07.53-.22l2.87-2.88c.29-.29.29-.77 0-1.06a.754.754 0 0 0-1.06 0L15.85 8.6c-.29.29-.29.77 0 1.06Z"/></svg>
